printer-pos-remove-outline.svg

<svg fill="currentColor" viewBox="0 0 24 24"><path d="M7 15v-2h4v2zm-1 2h7.35c-.22.63-.35 1.3-.35 2H4v-7a2 2 0 0 1 2-2h1V4h10v6h1a2 2 0 0 1 2 2v1.09c-.33-.05-.66-.09-1-.09s-.67.04-1 .09V12H6zm3-7h6V6H9zm13.54 6.88-1.42-1.41L19 17.59l-2.12-2.12-1.41 1.41L17.59 19l-2.12 2.12 1.41 1.42L19 20.41l2.12 2.13 1.42-1.42L20.41 19z"/></svg>

<svg  viewBox="0 0 24 24" fill="currentColor"><path  d="M7 15V13H11V15H7M6 17H13.35C13.13 17.63 13 18.3 13 19H4V12C4 10.9 4.89 10 6 10H7V4H17V10H18C19.11 10 20 10.9 20 12V13.09C19.67 13.04 19.34 13 19 13C18.66 13 18.33 13.04 18 13.09V12H6V17M9 10H15V6H9V10M22.54 16.88L21.12 15.47L19 17.59L16.88 15.47L15.47 16.88L17.59 19L15.47 21.12L16.88 22.54L19 20.41L21.12 22.54L22.54 21.12L20.41 19L22.54 16.88Z"/></svg>
